; HEADER_BLOCK_START
; generated by OrcaSlicer 2.3.0 on 2025-04-27 at 00:31:43
; total layer number: 150
;_GP_TOTAL_LAYER_NUMBER_PLACEHOLDER
; filament_density: 1.24,1.24,1.24
; filament_diameter: 1.75,1.75,1.75
; max_z_height: 30.00
; HEADER_BLOCK_END

; THUMBNAIL_BLOCK_START

;
; THUMBNAIL_BLOCK_END

; external perimeters extrusion width = 0.42mm
; perimeters extrusion width = 0.45mm
; infill extrusion width = 0.45mm
; solid infill extrusion width = 0.42mm
; top infill extrusion width = 0.42mm
; first layer extrusion width = 0.50mm

; EXECUTABLE_BLOCK_START
EXCLUDE_OBJECT_DEFINE NAME=top.stl_id_0_copy_0 CENTER=150,150 POLYGON=[[75,105],[75.076,104.132],[75.3015,103.29],[75.6699,102.5],[76.1698,101.786],[76.4645,101.464],[76.7861,101.17],[77.5,100.67],[78.2899,100.302],[79.1318,100.076],[80,100],[220,100],[220.868,100.076],[221.71,100.302],[222.5,100.67],[223.214,101.17],[223.536,101.464],[223.83,101.786],[224.33,102.5],[224.698,103.29],[224.924,104.132],[225,105],[225,195],[224.924,195.868],[224.698,196.71],[224.33,197.5],[223.83,198.214],[223.536,198.536],[223.214,198.83],[222.5,199.33],[221.71,199.698],[220.868,199.924],[220,200],[80,200],[79.1318,199.924],[78.2899,199.698],[77.5,199.33],[76.7861,198.83],[76.4645,198.536],[76.1698,198.214],[75.6699,197.5],[75.3015,196.71],[75.076,195.868],[75,195],[75,105]]
M73 P0 R59
M106 S0
M106 P2 S0
;TYPE:Custom
M140 S0
M104 S0
START_PRINT EXTRUDER_TEMP=205 BED_TEMP=50
G90
G21
M83 ; use relative distances for extrusion
; filament start gcode
; MANUAL_TOOL_CHANGE T0
M106 S0
M106 P2 S0
;LAYER_CHANGE
;Z:0.2
;HEIGHT:0.2
;BEFORE_LAYER_CHANGE
;0.2
G92 E0

G1 E-.6 F2400
;_SET_FAN_SPEED_CHANGING_LAYER
SET_VELOCITY_LIMIT ACCEL=500 ACCEL_TO_DECEL=250
SET_VELOCITY_LIMIT SQUARE_CORNER_VELOCITY=9
EXCLUDE_OBJECT_START NAME=top.stl_id_0_copy_0
G1 Z.32 F36000
G1 X73.176 Y96.045
G1 Z.32
G1 Z.2
G1 E.6 F2400
;TYPE:Brim
;WIDTH:0.5
G1 F3600
G1 X73.887 Y95.545 E.03237
G1 X74.834 Y94.996 E.0408
G1 X75.621 Y94.627 E.03237
G1 X76.65 Y94.251 E.0408
G1 X77.486 Y94.025 E.03226
G1 X78.561 Y93.833 E.04067
G1 X79.434 Y93.755 E.03265
G1 X79.996 Y93.73 E.02095
G1 X220.004 Y93.73 E5.21474
G1 X220.551 Y93.754 E.02042
G1 X221.402 Y93.828 E.0318
G1 X222.467 Y94.015 E.04027
G1 X223.31 Y94.238 E.03247
G1 X224.343 Y94.612 E.04093
G1 X225.131 Y94.978 E.03237
G1 X226.081 Y95.524 E.0408
G1 X226.793 Y96.021 E.03233
G1 X227.85 Y96.919 E.05164
G1 X228.383 Y97.488 E.02905
G1 X228.955 Y98.175 E.03331
G1 X229.455 Y98.887 E.03239
G1 X230.004 Y99.834 E.0408
G1 X230.373 Y100.621 E.03237
G1 X230.749 Y101.65 E.0408
G1 X230.976 Y102.489 E.03237
G1 X231.168 Y103.568 E.0408
G1 X231.245 Y104.438 E.03255
G1 X231.27 Y104.996 E.02082
G1 X231.271 Y194.995 E3.35211
G1 X231.247 Y195.54 E.02032
G1 X231.172 Y196.402 E.03223
G1 X230.984 Y197.473 E.04051
G1 X230.761 Y198.313 E.03237
G1 X230.388 Y199.343 E.0408
G1 X230.022 Y200.131 E.03237
G1 X229.476 Y201.081 E.0408
G1 X228.978 Y201.794 E.03237
G1 X228.281 Y202.63 E.04055
G1 X228.083 Y202.848 E.01097
G1 X227.657 Y203.255 E.02197
G1 X226.824 Y203.955 E.0405
G1 X226.113 Y204.455 E.03237
G1 X225.166 Y205.004 E.0408
G1 X224.379 Y205.373 E.03237
G1 X223.35 Y205.749 E.0408
G1 X222.511 Y205.976 E.03237
G1 X221.433 Y206.168 E.0408
G1 X220.562 Y206.245 E.03255
G1 X220.004 Y206.27 E.02082
G1 X80.005 Y206.271 E5.21442
G1 X79.46 Y206.247 E.02032
G1 X78.598 Y206.172 E.03223
G1 X77.527 Y205.984 E.0405
G1 X76.69 Y205.761 E.03226
G1 X75.663 Y205.39 E.04067
G1 X74.872 Y205.023 E.03247
G1 X73.919 Y204.476 E.04093
G1 X73.206 Y203.978 E.03237
G1 X72.37 Y203.281 E.04055
G1 X72.152 Y203.083 E.01097
G1 X71.744 Y202.657 E.02197
G1 X71.045 Y201.824 E.0405
G1 X70.545 Y201.113 E.03237
G1 X69.996 Y200.166 E.0408
G1 X69.627 Y199.379 E.03237
G1 X69.251 Y198.35 E.04081
G1 X69.024 Y197.511 E.03237
G1 X68.832 Y196.432 E.0408
G1 X68.755 Y195.562 E.03255
G1 X68.73 Y195.004 E.02082
G1 X68.729 Y105.005 E3.35211
G1 X68.753 Y104.46 E.02032
G1 X68.828 Y103.598 E.03223
G1 X69.016 Y102.527 E.0405
G1 X69.239 Y101.69 E.03226
G1 X69.61 Y100.663 E.04068
G1 X69.977 Y99.872 E.03247
G1 X70.524 Y98.919 E.04093
G1 X71.021 Y98.206 E.03237
G1 X71.719 Y97.37 E.04055
G1 X71.917 Y97.152 E.01097
G1 X72.343 Y96.744 E.02197
G1 X73.145 Y96.071 E.03901
G1 X73.439 Y96.421 F36000
G1 F3600
G1 X73.459 Y96.404 E.00098
G1 X74.138 Y95.928 E.03089
G1 X75.052 Y95.399 E.03931
G1 X75.803 Y95.048 E.03088
G1 X76.783 Y94.689 E.03887
G1 X77.592 Y94.471 E.03122
G1 X78.616 Y94.288 E.03875
G1 X79.462 Y94.211 E.03164
G1 X80.01 Y94.187 E.02042
G1 X219.997 Y94.187 E5.21399
G1 X220.525 Y94.21 E.01968
G1 X221.337 Y94.281 E.03037
G1 X222.363 Y94.461 E.03881
G1 X223.179 Y94.677 E.03144
G1 X224.163 Y95.033 E.03899
G1 X224.926 Y95.387 E.03132
G1 X225.841 Y95.914 E.03931
G1 X226.519 Y96.388 E.0308
G1 X227.539 Y97.256 E.0499
G1 X228.043 Y97.794 E.02744
G1 X228.588 Y98.449 E.03176
G1 X229.066 Y99.128 E.03094
G1 X229.596 Y100.041 E.03931
G1 X229.948 Y100.792 E.03088
G1 X230.311 Y101.783 E.03931
G1 X230.528 Y102.583 E.03088
G1 X230.713 Y103.622 E.03932
G1 X230.789 Y104.471 E.03176
G1 X230.813 Y105.01 E.02006
G1 X230.813 Y194.988 E3.35136
G1 X230.79 Y195.513 E.01958
G1 X230.719 Y196.337 E.03079
G1 X230.536 Y197.381 E.03947
G1 X230.322 Y198.182 E.03089
G1 X229.967 Y199.163 E.03887
G1 X229.618 Y199.915 E.03088
G1 X229.086 Y200.841 E.03976
G1 X228.611 Y201.521 E.03089
G1 X227.938 Y202.328 E.03914
G1 X227.752 Y202.532 E.0103
G1 X227.355 Y202.912 E.02046
G1 X226.541 Y203.596 E.03961
G1 X225.862 Y204.072 E.03089
G1 X224.948 Y204.601 E.03931
G1 X224.197 Y204.953 E.03088
G1 X223.217 Y205.311 E.03887
G1 X222.405 Y205.53 E.03132
G1 X221.378 Y205.713 E.03887
G1 X220.535 Y205.789 E.03153
G1 X219.99 Y205.813 E.02029
G1 X80.018 Y205.813 E5.21344
G1 X79.487 Y205.79 E.0198
G1 X78.663 Y205.719 E.03079
G1 X77.619 Y205.536 E.03947
G1 X76.821 Y205.323 E.03078
G1 X75.843 Y204.969 E.03875
G1 X75.088 Y204.62 E.03098
G1 X74.159 Y204.086 E.03989
G1 X73.479 Y203.611 E.03089
G1 X72.672 Y202.938 E.03915
G1 X72.468 Y202.752 E.0103
G1 X72.088 Y202.355 E.02047
G1 X71.404 Y201.541 E.03961
G1 X70.928 Y200.862 E.03089
G1 X70.399 Y199.948 E.03931
G1 X70.048 Y199.197 E.03088
G1 X69.689 Y198.217 E.03887
G1 X69.47 Y197.405 E.03132
G1 X69.287 Y196.378 E.03887
G1 X69.211 Y195.535 E.03153
G1 X69.187 Y194.997 E.02006
G1 X69.187 Y105.018 E3.35136
G1 X69.21 Y104.487 E.0198
G1 X69.281 Y103.663 E.03079
G1 X69.464 Y102.619 E.03947
G1 X69.677 Y101.821 E.03078
G1 X70.031 Y100.842 E.03875
G1 X70.38 Y100.088 E.03098
G1 X70.914 Y99.159 E.03988
G1 X71.389 Y98.479 E.03089
G1 X72.062 Y97.672 E.03915
G1 X72.248 Y97.468 E.0103
G1 X72.645 Y97.088 E.02047
G1 X73.409 Y96.447 E.03714
G1 X73.703 Y96.797 F36000
G1 F3600
G1 X73.743 Y96.763 E.00196
G1 X74.39 Y96.31 E.02941
G1 X75.269 Y95.802 E.03783
G1 X75.984 Y95.468 E.02939
G1 X76.915 Y95.127 E.03694
G1 X77.698 Y94.916 E.03018
G1 X78.671 Y94.742 E.03683
G1 X79.49 Y94.668 E.03062
G1 X80.023 Y94.644 E.01988
G1 X219.984 Y94.644 E5.21301
G1 X220.498 Y94.667 E.01916
G1 X221.272 Y94.734 E.02894
G1 X222.259 Y94.906 E.03733
G1 X223.048 Y95.116 E.0304
G1 X223.983 Y95.454 E.03705
G1 X224.721 Y95.796 E.03028
G1 X225.6 Y96.304 E.03782
G1 X226.244 Y96.754 E.02926
G1 X227.217 Y97.582 E.0476
G1 X227.702 Y98.099 E.02641
G1 X228.221 Y98.723 E.03021
G1 X228.677 Y99.37 E.02949
G1 X229.187 Y100.248 E.03783
G1 X229.523 Y100.962 E.02939
G1 X229.873 Y101.916 E.03783
G1 X230.08 Y102.677 E.02939
G1 X230.259 Y103.677 E.03783
G1 X230.333 Y104.505 E.03097
G1 X230.356 Y105.023 E.0193
G1 X230.356 Y194.981 E3.35061
G1 X230.334 Y195.486 E.01884
G1 X230.266 Y196.272 E.02936
G1 X230.087 Y197.288 E.03843
G1 X229.883 Y198.051 E.0294
G1 X229.546 Y198.983 E.03695
G1 X229.214 Y199.7 E.02939
G1 X228.696 Y200.6 E.03871
G1 X228.244 Y201.247 E.0294
G1 X227.595 Y202.025 E.03774
G1 X227.046 Y202.574 E.02891
G1 X226.257 Y203.237 E.03838
G1 X225.61 Y203.69 E.02941
G1 X224.731 Y204.198 E.03783
G1 X224.016 Y204.532 E.02939
G1 X223.085 Y204.873 E.03694
G1 X222.3 Y205.085 E.03028
G1 X221.323 Y205.259 E.03694
G1 X220.507 Y205.332 E.03052
G1 X219.977 Y205.356 E.01976
G1 X80.031 Y205.356 E5.21247
G1 X79.513 Y205.334 E.01929
G1 X78.728 Y205.266 E.02935
G1 X77.712 Y205.088 E.03843
G1 X76.952 Y204.884 E.0293
G1 X76.022 Y204.548 E.03683
G1 X75.303 Y204.216 E.02949
G1 X74.399 Y203.696 E.03883
G1 X73.753 Y203.244 E.0294
G1 X72.975 Y202.595 E.03774
G1 X72.426 Y202.046 E.02891
G1 X71.763 Y201.257 E.03838
G1 X71.31 Y200.61 E.02941
G1 X70.802 Y199.731 E.03782
G1 X70.468 Y199.016 E.02939
G1 X70.127 Y198.085 E.03695
G1 X69.915 Y197.3 E.03028
G1 X69.741 Y196.323 E.03694
G1 X69.668 Y195.507 E.03052
G1 X69.644 Y194.983 E.01953
G1 X69.644 Y105.031 E3.35039
G1 X69.666 Y104.513 E.01929
G1 X69.734 Y103.728 E.02935
G1 X69.912 Y102.712 E.03843
G1 X70.116 Y101.952 E.0293
G1 X70.452 Y101.022 E.03684
G1 X70.784 Y100.303 E.02949
G1 X71.304 Y99.399 E.03883
G1 X71.756 Y98.753 E.0294
G1 X72.405 Y97.975 E.03774
G1 X72.954 Y97.426 E.02891
G1 X73.672 Y96.823 E.03493
G1 X73.966 Y97.173 F36000
G1 F3600
G1 X74.027 Y97.123 E.00294
G1 X74.641 Y96.693 E.02793
G1 X75.486 Y96.205 E.03634
G1 X76.165 Y95.888 E.02791
G1 X77.048 Y95.565 E.03503
G1 X77.803 Y95.361 E.02914
G1 X78.726 Y95.197 E.03492
G1 X79.518 Y95.124 E.0296
G1 X80.036 Y95.101 E.01934
G1 X219.971 Y95.101 E5.21203
G1 X220.471 Y95.123 E.01864
G1 X221.206 Y95.188 E.02752
G1 X222.155 Y95.352 E.03586
G1 X222.917 Y95.554 E.02935
G1 X223.803 Y95.875 E.03511
G1 X224.515 Y96.206 E.02923
G1 X225.36 Y96.693 E.03632
G1 X225.969 Y97.12 E.02773
G1 X226.907 Y97.919 E.04588
G1 X227.362 Y98.405 E.02481
G1 X227.855 Y98.997 E.02867
G1 X228.289 Y99.612 E.02804
G1 X228.779 Y100.455 E.03634
G1 X229.098 Y101.133 E.0279
G1 X229.435 Y102.049 E.03634
G1 X229.632 Y102.772 E.0279
G1 X229.804 Y103.732 E.03634
G1 X229.877 Y104.539 E.03017
G1 X229.899 Y105.036 E.01853
G1 X229.899 Y194.974 E3.34986
G1 X229.877 Y195.459 E.0181
G1 X229.812 Y196.206 E.02792
G1 X229.639 Y197.195 E.03739
G1 X229.445 Y197.919 E.02792
G1 X229.125 Y198.804 E.03505
G1 X228.811 Y199.484 E.02789
G1 X228.307 Y200.36 E.03765
G1 X227.877 Y200.974 E.02792
G1 X227.261 Y201.712 E.0358
G1 X226.732 Y202.241 E.02785
G1 X225.973 Y202.877 E.03689
G1 X225.359 Y203.307 E.02793
G1 X224.514 Y203.795 E.03634
G1 X223.835 Y204.112 E.02791
G1 X222.952 Y204.435 E.03503
G1 X222.194 Y204.639 E.02924
G1 X221.268 Y204.804 E.03502
G1 X220.479 Y204.876 E.0295
G1 X219.964 Y204.899 E.01922
G1 X80.044 Y204.899 E5.2115
G1 X79.54 Y204.877 E.01877
G1 X78.794 Y204.812 E.02791
G1 X77.805 Y204.639 E.03739
G1 X77.084 Y204.446 E.02782
G1 X76.202 Y204.127 E.03494
G1 X75.519 Y203.812 E.02799
G1 X74.64 Y203.307 E.03777
G1 X74.026 Y202.877 E.02791
G1 X73.288 Y202.261 E.03581
G1 X72.759 Y201.732 E.02785
G1 X72.123 Y200.973 E.03689
G1 X71.693 Y200.359 E.02793
G1 X71.205 Y199.514 E.03634
G1 X70.888 Y198.835 E.02791
G1 X70.565 Y197.952 E.03503
G1 X70.361 Y197.194 E.02924
G1 X70.196 Y196.268 E.03502
G1 X70.124 Y195.479 E.0295
G1 X70.101 Y194.97 E.01899
G1 X70.101 Y105.044 E3.34941
G1 X70.123 Y104.54 E.01877
M73 P1 R59
G1 X70.188 Y103.794 E.02791
G1 X70.361 Y102.805 E.03739
G1 X70.554 Y102.084 E.02782
G1 X70.873 Y101.202 E.03494
G1 X71.188 Y100.519 E.02799
G1 X71.693 Y99.64 E.03777
G1 X72.123 Y99.026 E.02791
G1 X72.739 Y98.288 E.03581
G1 X73.268 Y97.759 E.02785
G1 X73.935 Y97.199 E.03246
G1 X74.229 Y97.55 F36000
G1 F3600
G1 X74.31 Y97.482 E.00392
G1 X74.892 Y97.076 E.02644
G1 X75.702 Y96.608 E.03486
G1 X76.346 Y96.309 E.02643
G1 X77.181 Y96.003 E.03311
G1 X77.909 Y95.807 E.02809
G1 X78.782 Y95.651 E.03301
G1 X79.545 Y95.581 E.02857
G1 X80.05 Y95.558 E.01879
G1 X219.958 Y95.558 E5.21105
G1 X221.139 Y95.64 E.04411
G1 X222.051 Y95.798 E.03447
G1 X222.786 Y95.993 E.02831
G1 X223.623 Y96.296 E.03318
G1 X224.309 Y96.615 E.02817
G1 X225.119 Y97.082 E.03481
G1 X225.694 Y97.486 E.02619
G1 X226.585 Y98.245 E.0436
G1 X227.022 Y98.711 E.02379
G1 X227.488 Y99.271 E.02713
G1 X227.9 Y99.854 E.02659
G1 X228.371 Y100.663 E.03486
G1 X228.674 Y101.304 E.02641
G1 X228.997 Y102.182 E.03486
G1 X229.184 Y102.866 E.02641
G1 X229.35 Y103.787 E.03485
G1 X229.421 Y104.573 E.02937
G1 X229.442 Y105.049 E.01775
G1 X229.442 Y194.971 E3.34925
G1 X229.36 Y196.139 E.04362
G1 X229.191 Y197.102 E.03643
G1 X229.007 Y197.787 E.02643
G1 X228.704 Y198.624 E.03316
G1 X228.407 Y199.268 E.0264
G1 X227.917 Y200.12 E.03659
G1 X227.51 Y200.7 E.02642
G1 X226.927 Y201.399 E.03388
G1 X226.419 Y201.907 E.02679
G1 X225.69 Y202.518 E.03539
G1 X225.108 Y202.924 E.02644
G1 X224.298 Y203.392 E.03486
G1 X223.654 Y203.691 E.02643
G1 X222.819 Y203.997 E.03311
G1 X222.088 Y204.194 E.0282
G1 X221.213 Y204.35 E.03311
G1 X220.452 Y204.42 E.02848
G1 X219.951 Y204.442 E.01868
G1 X80.057 Y204.442 E5.21053
G1 X78.861 Y204.36 E.04463
G1 X77.898 Y204.191 E.03643
G1 X77.215 Y204.007 E.02633
G1 X76.381 Y203.705 E.03305
G1 X75.735 Y203.408 E.0265
G1 X74.88 Y202.917 E.0367
G1 X74.3 Y202.51 E.02641
G1 X73.601 Y201.927 E.03388
G1 X73.092 Y201.419 E.02679
G1 X72.482 Y200.69 E.03539
G1 X72.076 Y200.108 E.02644
G1 X71.608 Y199.298 E.03485
G1 X71.309 Y198.654 E.02643
G1 X71.003 Y197.819 E.03312
G1 X70.806 Y197.088 E.0282
G1 X70.65 Y196.213 E.03311
G1 X70.58 Y195.451 E.02848
G1 X70.558 Y194.957 E.01845
G1 X70.558 Y105.057 E3.34844
G1 X70.64 Y103.861 E.04462
G1 X70.809 Y102.898 E.03643
G1 X70.993 Y102.215 E.02633
G1 X71.295 Y101.381 E.03306
G1 X71.592 Y100.735 E.02649
G1 X72.083 Y99.88 E.0367
G1 X72.49 Y99.3 E.02641
G1 X73.073 Y98.601 E.03388
G1 X73.581 Y98.092 E.02679
G1 X74.199 Y97.576 E.02998
G1 X74.492 Y97.927 F36000
G1 F3600
G1 X74.593 Y97.842 E.00489
G1 X75.143 Y97.459 E.02496
G1 X75.919 Y97.012 E.03337
G1 X76.527 Y96.729 E.02495
G1 X77.314 Y96.442 E.03121
G1 X78.015 Y96.252 E.02705
G1 X78.837 Y96.106 E.03111
G1 X79.574 Y96.037 E.02755
G1 X80.063 Y96.015 E.01824
G1 X219.937 Y96.015 E5.20978
G1 X221.077 Y96.094 E.04257
G1 X221.947 Y96.244 E.03289
G1 X222.655 Y96.432 E.02726
G1 X223.443 Y96.717 E.03124
G1 X224.104 Y97.024 E.02712
G1 X224.877 Y97.471 E.03329
G1 X225.419 Y97.852 E.02465
G1 X226.263 Y98.572 E.04133
G1 X226.682 Y99.017 E.02277
G1 X227.122 Y99.545 E.02559
G1 X227.512 Y100.097 E.02515
G1 X227.963 Y100.871 E.03338
G1 X228.249 Y101.476 E.02492
G1 X228.559 Y102.316 E.03337
G1 X228.736 Y102.962 E.02492
G1 X228.895 Y103.843 E.03335
G1 X228.965 Y104.607 E.02857
G1 X228.985 Y105.062 E.01697
G1 X228.984 Y194.959 E3.34835
G1 X228.906 Y196.076 E.0417
G1 X228.743 Y197.009 E.03528
G1 X228.568 Y197.655 E.02493
G1 X228.282 Y198.445 E.03128
G1 X228.003 Y199.052 E.0249
G1 X227.528 Y199.879 E.03551
G1 X227.143 Y200.427 E.02493
G1 X226.593 Y201.085 E.03196
G1 X226.105 Y201.574 E.02572
G1 X225.407 Y202.158 E.03389
G1 X224.857 Y202.541 E.02496
G1 X224.081 Y202.988 E.03337
G1 X223.473 Y203.271 E.02495
G1 X222.686 Y203.558 E.03121
G1 X221.983 Y203.748 E.02716
G1 X221.158 Y203.895 E.03121
G1 X220.424 Y203.963 E.02745
G1 X219.938 Y203.985 E.01813
G1 X80.077 Y203.985 E5.20927
G1 X78.924 Y203.906 E.04306
M73 P1 R58
G1 X77.991 Y203.743 E.03527
G1 X77.347 Y203.569 E.02483
G1 X76.56 Y203.284 E.03119
G1 X75.95 Y203.004 E.02499
G1 X75.121 Y202.527 E.03562
G1 X74.573 Y202.143 E.02492
G1 X73.915 Y201.593 E.03197
G1 X73.426 Y201.105 E.02572
G1 X72.842 Y200.407 E.03389
G1 X72.459 Y199.857 E.02496
G1 X72.012 Y199.081 E.03337
G1 X71.73 Y198.473 E.02495
G1 X71.442 Y197.686 E.03121
G1 X71.252 Y196.983 E.02716
G1 X71.105 Y196.158 E.03121
G1 X71.037 Y195.424 E.02746
G1 X71.015 Y194.943 E.0179
G1 X71.015 Y105.077 E3.34718
G1 X71.094 Y103.924 E.04306
G1 X71.257 Y102.991 E.03527
G1 X71.431 Y102.347 E.02483
G1 X71.716 Y101.56 E.03119
G1 X71.996 Y100.95 E.02499
G1 X72.473 Y100.121 E.03562
G1 X72.857 Y99.574 E.02491
G1 X73.407 Y98.915 E.03197
G1 X73.895 Y98.426 E.02572
G1 X74.461 Y97.952 E.0275
G1 X74.755 Y98.303 F36000
G1 F3600
G1 X74.876 Y98.202 E.00587
G1 X75.393 Y97.842 E.02347
G1 X76.135 Y97.415 E.03189
G1 X76.707 Y97.15 E.02348
G1 X77.446 Y96.88 E.02932
G1 X78.121 Y96.698 E.02601
G1 X78.893 Y96.56 E.02922
G1 X79.602 Y96.494 E.02652
G1 X80.076 Y96.472 E.01769
G1 X219.916 Y96.472 E5.20852
G1 X221.016 Y96.548 E.04104
G1 X221.844 Y96.69 E.03129
G1 X222.524 Y96.87 E.0262
G1 X223.263 Y97.138 E.0293
